static/img/kroki/07b5100eff69e7a1015f72ed77c87ac3.svg

<?xml version="1.0" encoding="us-ascii" standalone="no"?><svg xmlns="http://www.w3.org/2000/svg" xmlns:xlink="http://www.w3.org/1999/xlink" contentStyleType="text/css" height="374px" preserveAspectRatio="none" style="width:379px;height:374px;" version="1.1" viewBox="0 0 379 374" width="379px" zoomAndPan="magnify"><defs/><g><!--class azure_authorization_deny_assignment--><g id="elem_azure_authorization_deny_assignment"><rect codeLine="23" fill="#3D176E" height="39.7891" id="azure_authorization_deny_assignment" rx="2.5" ry="2.5" style="stroke:#000D19;stroke-width:0.5;" width="365" x="7" y="328.58"/><ellipse cx="22" cy="348.4745" fill="#ADD1B2" rx="11" ry="11" style="stroke:#181818;stroke-width:1.0;"/><path d="M24.9688,354.1152 Q24.3906,354.412 23.75,354.5527 Q23.1094,354.7089 22.4063,354.7089 Q19.9063,354.7089 18.5781,353.0683 Q17.2656,351.412 17.2656,348.287 Q17.2656,345.162 18.5781,343.5058 Q19.9063,341.8495 22.4063,341.8495 Q23.1094,341.8495 23.75,342.0058 Q24.4063,342.162 24.9688,342.4589 L24.9688,345.1777 Q24.3438,344.5995 23.75,344.3339 Q23.1563,344.0527 22.5313,344.0527 Q21.1875,344.0527 20.5,345.1308 Q19.8125,346.1933 19.8125,348.287 Q19.8125,350.3808 20.5,351.4589 Q21.1875,352.5214 22.5313,352.5214 Q23.1563,352.5214 23.75,352.2558 Q24.3438,351.9745 24.9688,351.3964 L24.9688,354.1152 Z " fill="#000000"/><text fill="#D9B8FF" font-family="Helvetica" font-size="17" lengthAdjust="spacing" textLength="323" x="41" y="354.3598">azure_authorization_deny_assignment</text></g><!--class microsoft_resource--><g id="elem_microsoft_resource"><rect codeLine="26" fill="#3D176E" height="39.7891" id="microsoft_resource" rx="2.5" ry="2.5" style="stroke:#000D19;stroke-width:0.5;" width="200" x="89.5" y="167.79"/><ellipse cx="104.5" cy="187.6845" fill="#ADD1B2" rx="11" ry="11" style="stroke:#181818;stroke-width:1.0;"/><path d="M107.4688,193.3252 Q106.8906,193.622 106.25,193.7627 Q105.6094,193.9189 104.9063,193.9189 Q102.4063,193.9189 101.0781,192.2783 Q99.7656,190.622 99.7656,187.497 Q99.7656,184.372 101.0781,182.7158 Q102.4063,181.0595 104.9063,181.0595 Q105.6094,181.0595 106.25,181.2158 Q106.9063,181.372 107.4688,181.6689 L107.4688,184.3877 Q106.8438,183.8095 106.25,183.5439 Q105.6563,183.2627 105.0313,183.2627 Q103.6875,183.2627 103,184.3408 Q102.3125,185.4033 102.3125,187.497 Q102.3125,189.5908 103,190.6689 Q103.6875,191.7314 105.0313,191.7314 Q105.6563,191.7314 106.25,191.4658 Q106.8438,191.1845 107.4688,190.6064 L107.4688,193.3252 Z " fill="#000000"/><text fill="#D9B8FF" font-family="Helvetica" font-size="17" lengthAdjust="spacing" textLength="158" x="123.5" y="193.5698">microsoft_resource</text></g><!--class resource--><g id="elem_resource"><rect codeLine="29" fill="#3D176E" height="39.7891" id="resource" rx="2.5" ry="2.5" style="stroke:#000D19;stroke-width:0.5;" width="113" x="133" y="7"/><ellipse cx="148" cy="26.8945" fill="#ADD1B2" rx="11" ry="11" style="stroke:#181818;stroke-width:1.0;"/><path d="M150.9688,32.5352 Q150.3906,32.832 149.75,32.9727 Q149.1094,33.1289 148.4063,33.1289 Q145.9063,33.1289 144.5781,31.4883 Q143.2656,29.832 143.2656,26.707 Q143.2656,23.582 144.5781,21.9258 Q145.9063,20.2695 148.4063,20.2695 Q149.1094,20.2695 149.75,20.4258 Q150.4063,20.582 150.9688,20.8789 L150.9688,23.5977 Q150.3438,23.0195 149.75,22.7539 Q149.1563,22.4727 148.5313,22.4727 Q147.1875,22.4727 146.5,23.5508 Q145.8125,24.6133 145.8125,26.707 Q145.8125,28.8008 146.5,29.8789 Q147.1875,30.9414 148.5313,30.9414 Q149.1563,30.9414 149.75,30.6758 Q150.3438,30.3945 150.9688,29.8164 L150.9688,32.5352 Z " fill="#000000"/><text fill="#D9B8FF" font-family="Helvetica" font-size="17" lengthAdjust="spacing" textLength="71" x="167" y="32.7798">resource</text></g><!--reverse link microsoft_resource to azure_authorization_deny_assignment--><g id="link_microsoft_resource_azure_authorization_deny_assignment"><path codeLine="32" d="M189.5,225.84 C189.5,256.36 189.5,297.69 189.5,328.25 " fill="none" id="microsoft_resource-backto-azure_authorization_deny_assignment" style="stroke:#FFAF37;stroke-width:2.0;"/><polygon fill="none" points="189.5,207.84,183.5,225.84,195.5,225.84,189.5,207.84" style="stroke:#FFAF37;stroke-width:2.0;"/></g><!--reverse link resource to microsoft_resource--><g id="link_resource_microsoft_resource"><path codeLine="33" d="M189.5,65.05 C189.5,95.57 189.5,136.9 189.5,167.46 " fill="none" id="resource-backto-microsoft_resource" style="stroke:#FFAF37;stroke-width:2.0;"/><polygon fill="none" points="189.5,47.05,183.5,65.05,195.5,65.05,189.5,47.05" style="stroke:#FFAF37;stroke-width:2.0;"/></g><!--SRC=[ZP9FJm8n4CNl-ocQS2O1YIuaNf34w8KOyRuPjbEsOTlPJ6Sbe7vtGT2KNVvudVVhlFScBQn6XQwIjNBeviWX2KlhAs1mQinCgmcLnAfZ39X1sXGVoSjLO0eErHEMxoWsXoRnLjXywJ44THD93v0l5qorr_lrmk33La8l4JKf8OIn2DjvBHY5qQFvq9WcsLpQ6UX-UeSjZ5WZ7v1UhwVxeoPorUfYxpzYPZUe-l7HfYJOYjco-A4kfjmHKSXMqL_zRCONqDhwXRgDPg_xJEoHZ-Qp0ZIjThI1CiGsGP2HP5tXfDKAHqDjqfFmypauoNUdKx2f6JEefI2s6n1BFjFerzbMj0lljhz4VIJ9rm5tDcSAP2HZ35HpZh5wF3l1tdzskzt_U2QD9-rToJS0]--></g></svg>

<svg xmlns="http://www.w3.org/2000/svg" width="379" height="374" viewBox="0 0 379 374"><rect width="365" height="39.789" x="7" y="328.58" fill="#3D176E" rx="2.5" ry="2.5" style="stroke:#000d19;stroke-width:.5"/><circle cx="22" cy="348.474" r="11" fill="#ADD1B2" style="stroke:#181818;stroke-width:1"/><path d="M24.969 354.115q-.578.297-1.219.438-.64.156-1.344.156-2.5 0-3.828-1.64-1.312-1.657-1.312-4.782t1.312-4.781q1.328-1.656 3.828-1.656.703 0 1.344.156.656.156 1.219.453v2.719q-.625-.579-1.219-.844-.594-.281-1.219-.281-1.343 0-2.031 1.078-.687 1.062-.687 3.156t.687 3.172q.688 1.062 2.031 1.062.625 0 1.219-.265.594-.281 1.219-.86z"/><text x="41" y="354.36" fill="#D9B8FF" font-family="Helvetica" font-size="17" textLength="323">azure_authorization_deny_assignment</text><rect width="200" height="39.789" x="89.5" y="167.79" fill="#3D176E" rx="2.5" ry="2.5" style="stroke:#000d19;stroke-width:.5"/><circle cx="104.5" cy="187.685" r="11" fill="#ADD1B2" style="stroke:#181818;stroke-width:1"/><path d="M107.469 193.325q-.578.297-1.219.438-.64.156-1.344.156-2.5 0-3.828-1.64-1.312-1.657-1.312-4.782t1.312-4.781q1.328-1.656 3.828-1.656.703 0 1.344.156.656.156 1.219.453v2.719q-.625-.578-1.219-.844-.594-.281-1.219-.281-1.344 0-2.031 1.078-.687 1.062-.687 3.156t.687 3.172q.688 1.062 2.031 1.062.625 0 1.219-.265.594-.281 1.219-.86z"/><text x="123.5" y="193.57" fill="#D9B8FF" font-family="Helvetica" font-size="17" textLength="158">microsoft_resource</text><rect width="113" height="39.789" x="133" y="7" fill="#3D176E" rx="2.5" ry="2.5" style="stroke:#000d19;stroke-width:.5"/><circle cx="148" cy="26.895" r="11" fill="#ADD1B2" style="stroke:#181818;stroke-width:1"/><path d="M150.969 32.535q-.578.297-1.219.438-.64.156-1.344.156-2.5 0-3.828-1.64-1.312-1.657-1.312-4.782t1.312-4.781q1.328-1.656 3.828-1.656.703 0 1.344.156.656.156 1.219.453v2.719q-.625-.578-1.219-.844-.594-.281-1.219-.281-1.344 0-2.031 1.078-.687 1.062-.687 3.156t.687 3.172q.688 1.062 2.031 1.062.625 0 1.219-.265.594-.281 1.219-.86z"/><text x="167" y="32.78" fill="#D9B8FF" font-family="Helvetica" font-size="17" textLength="71">resource</text><path fill="none" d="M189.5 225.84v102.41m0-120.41-6 18h12zm0-142.79v102.41m0-120.41-6 18h12z" style="stroke:#ffaf37;stroke-width:2"/></svg>
